X:1
T:Now begin the heavenly theme
T:Thomas Jarman
T:p28, Sacred Music, comprising Thirty Six Select Hymns, London: [c1812].
T:This edition by Edmund Gooch released into the public domain, September 2014.
T:Now begin the heavenly theme
T:TRIUMPH. Sevens. Hymn 69. Dr. Rippon.
C:Thomas Jarman
Z:p28, Sacred Music, comprising
Z:Thirty Six Select Hymns,
Z:London: [c1812].
%%score [ 1 2 3 4 ]
L:1/8
M:2/4
K:C
V:1 treble nm="Soprano" snm="S."
V:2 treble nm="Alto" snm="A."
V:3 treble-8 transpose=-12 nm="Tenor" snm="T."
V:4 bass nm="Bass" snm="B."
V:1
 c2 d2 | (ec) (dB) | G2 B2 | c2 z2 | (ce) (eg) | d2 (ec) | B2 A2 | G4 | c2 c2 | (cG) (cd) | e2 e2 | %11
w: Mourn- ing|souls, _ dry _|up your|tears,|Ba- * nish _|all your _|guil- ty|fears;|See your|guilt _ and _|curse re-|
w: Now be-|gin _ the _|heav’n- ly|theme,|Sing _ a- *|loud in _|Je- sus’|name:|Ye who|his _ sal- *|va- tion|
w: Ye who|see _ the _|Fa- ther’s|grace|Bea- * ming _|in the _|Sa- viour’s|face,|As to|Ca- * naan _|on ye|
!p! e4 | (ge) (cA) | (fd) (BG) | (cd/e/ f)e | (e2 d2) |!f! cf ed | e4 | d4 | c4 |] %20
w: move,|Can- * cell’d _|by _ re- *|deem- * * * ing|love, _|can- cell’d by re-|deem-|ing|love.|
w: prove,|Tri- * umph _|in _ re- *|deem- * * * ing|love, _|tri- umph in re-|deem-|ing|love.|
w: move,|Praise _ and _|bless _ re- *|deem- * * * ing|love, _|praise and bless re-|deem-|ing|love.|
V:2
 E2 G2 | G2 G2 | G2 F2 | E2 z2 | (E G2) G | G2 G2 | G2 ^F2 | G4 | E2 E2 | E2 (EF) | G2 G2 | G4 | %12
w: Mourn- ing|souls, dry|up your|tears,|Ba- * nish|all your|guil- ty|fears;|See your|guilt and _|curse re-|move,|
w: Now be-|gin the|heav’n- ly|theme,|Sing _ a-|loud in|Je- sus’|name:|Ye who|his sal- *|va- tion|prove,|
w: Ye who|see the|Fa- ther’s|grace|Bea- * ming|in the|Sa- viour’s|face,|As to|Ca- naan _|on ye|move,|
 z4 | z4 | z4 | z4 | EA GA | G4 | F4 | E4 |] %20
w: ||||Can- cell’d by re-|deem-|ing|love,|
w: ||||Tri- umph in re-|deem-|ing|love.|
w: ||||Praise and bless re-|deem-|ing|love.|
V:3
 c2 B2 | (ce) (df) | e2 d2 | c2 z2 | (Gc) c2 | B2 (ce) | d2 c2 | B4 | G2 G2 | G2 G2 | c2 c2 | c4 | %12
w: Mourn- ing|souls, _ dry _|up your|tears,|Ba- * nish|all your _|guil- ty|fears;|See your|guilt and|curse re-|move,|
w: Now be-|gin _ the _|heav’n- ly|theme,|Sing _ a-|loud in _|Je- sus’|name:|Ye who|his sal-|va- tion|prove,|
w: Ye who|see _ the _|Fa- ther’s|grace|Bea- * ming|in the _|Sa- viour’s|face,|As to|Ca- naan|on ye|move,|
 z4 | z4 | z4 | z4 | cc cc | c4 | B4 | c4 |] %20
w: ||||Can- cell’d by re-|deem-|ing|love.|
w: ||||Tri- umph in re-|deem-|ing|love.|
w: ||||Praise and bless re-|deem-|ing|love.|
V:4
 C,2 G,2 | (CA,)"^6" (B,"^7"G,) | C2"^7" G,2 | C,2 z2 | C,2 C,2 | G,2 C,2 |"^64" D,2"^7#" D,2 | %7
w: Mourn- ing|souls, _ dry _|up your|tears,|Ba- nish|all your|guil- ty|
w: Now be-|gin _ the _|heav’n- ly|theme,|Sing a-|loud in|Je- sus’|
w: Ye who|see _ the _|Fa- ther’s|grace|Bea- ming|in the|Sa- viour’s|
 G,,4 | C2 G,2 |"^6" E,2 C,2 | %10
w: fears;|See your|guilt and|
w: name:|Ye who|his sal-|
w: face,|As to|Ca- naan|
"^Notes: The original order of parts is Tenor - Alto - Air - [Bass]: the alto part is printed in the treble clef an octave above sounding pitch in thesource. Only the first verse of the text is given in the source: three subsequent verses selected from the text have been added editorially.With the exception of the soprano part in bar 16, slurring is absent from the source for this piece, and has been added editorially based on thebeaming of note groups in the source." C2 C2 | %11
w: curse re-|
w: va- tion|
w: on ye|
 C4 |"^["!p!"^]" C,2 F,2 |"^6" D,2 G,2 |"^6" (E,2"^6" D,)C, |"^64""^53""^["!f!"^]" G,4 | %16
w: move,|Can- cell’d|by re-|deem- * ing|love,|
w: prove,|Tri- umph|in re-|deem- * ing|love,|
w: move,|Praise and|bless re-|deem- * ing|love,|
 C,D,"^6" E,"^65"F, |"^64" G,4 |"^75" G,,4 | C,4 |] %20
w: can- cell’d by re-|deem-|ing|love.|
w: tri- umph in re-|deem-|ing|love.|
w: praise and bless re-|deem-|ing|love.|

